X: 1017
T: Almond And The Olive, The
R: mazurka
M: 3/4
K: Eminor
|:B ^de|f2 Bf fa|g2-gf ga|e2 ef (3gfe|f^d BB de|
f2 Bf fa|g2 gf ga|e2 ef e^d|B3:|
|:F (3B^dB|A2 AB ~AG|F3 G AG|(3 FGA BA (3Bcd|c2 BF (3B^dB|
A2 AB ~AG|A2-AB GA|1 FG AB GA|F3:|2 FG AB Fe|^d3||

